apps/marketing/public/logos/adam.svg

<svg width="114" height="36" viewBox="0 0 114 36" fill="none" xmlns="http://www.w3.org/2000/svg">
<path d="M12.2148 34C10.2702 34 8.47745 33.529 6.83665 32.5871C5.22624 31.6452 3.95007 30.3842 3.00813 28.8041C2.06619 27.1937 1.59522 25.4314 1.59522 23.5171C1.59522 21.6029 2.06619 19.8557 3.00813 18.2757C3.95007 16.6653 5.22624 15.3891 6.83665 14.4472C8.47745 13.5052 10.2702 13.0343 12.2148 13.0343H22.6065V34H12.2148ZM12.2604 29.1688C13.2631 29.1688 14.1899 28.9105 15.0406 28.3939C15.8914 27.8774 16.5599 27.1937 17.0461 26.3429C17.5626 25.4618 17.8209 24.5198 17.8209 23.5171C17.8209 22.484 17.5626 21.5421 17.0461 20.6913C16.5599 19.8101 15.8914 19.1265 15.0406 18.6403C14.1899 18.1238 13.2631 17.8655 12.2604 17.8655C11.2577 17.8655 10.3309 18.1238 9.48016 18.6403C8.62938 19.1569 7.94571 19.8405 7.42916 20.6913C6.943 21.5421 6.69992 22.484 6.69992 23.5171C6.69992 24.5198 6.943 25.4618 7.42916 26.3429C7.94571 27.1937 8.62938 27.8774 9.48016 28.3939C10.3309 28.9105 11.2577 29.1688 12.2604 29.1688ZM47.5646 2.09561V34H37.0817C35.1978 34 33.4507 33.529 31.8403 32.5871C30.2299 31.6452 28.9537 30.369 28.0118 28.7586C27.0698 27.1482 26.5989 25.401 26.5989 23.5171C26.5989 21.6333 27.0698 19.8861 28.0118 18.2757C28.9537 16.6653 30.2299 15.3891 31.8403 14.4472C33.4507 13.5052 35.1978 13.0343 37.0817 13.0343H42.6422V2.09561H47.5646ZM37.2185 29.1688C38.2212 29.1688 39.1479 28.9105 39.9987 28.3939C40.8495 27.8774 41.518 27.1937 42.0041 26.3429C42.5207 25.4618 42.7789 24.5198 42.7789 23.5171C42.7789 22.484 42.5207 21.5421 42.0041 20.6913C41.518 19.8101 40.8495 19.1265 39.9987 18.6403C39.1479 18.1238 38.2212 17.8655 37.2185 17.8655C36.2461 17.8655 35.3346 18.1238 34.4838 18.6403C33.633 19.1265 32.9645 19.8101 32.4784 20.6913C31.9922 21.5421 31.7491 22.484 31.7491 23.5171C31.7491 24.5198 31.9922 25.4618 32.4784 26.3429C32.9645 27.1937 33.633 27.8774 34.4838 28.3939C35.3346 28.9105 36.2461 29.1688 37.2185 29.1688ZM80.7095 13.0343H101.858C103.559 13.0343 105.063 13.3837 106.37 14.0825C107.707 14.751 108.74 15.7082 109.469 16.9539C110.198 18.1997 110.563 19.643 110.563 21.2838V34H105.641V21.2838C105.641 20.2203 105.276 19.324 104.547 18.5947C103.817 17.8655 102.921 17.5009 101.858 17.5009C100.855 17.5009 99.9737 17.8655 99.2141 18.5947C98.4848 19.324 98.1202 20.2203 98.1202 21.2838V34H93.1523V21.2838C93.1523 20.2203 92.7876 19.324 92.0584 18.5947C91.3291 17.8655 90.448 17.5009 89.4149 17.5009C88.3818 17.5009 87.4854 17.8655 86.7258 18.5947C85.9966 19.324 85.6319 20.2203 85.6319 21.2838V34H80.7095V13.0343Z" fill="#F1F1F1"/>
<g clip-path="url(#clip0_7309_21232)">
<path d="M69.8763 31.6945L68.9112 28.3168L68.1867 25.7977L66.4074 19.5698L59.2077 19.3098L57.7376 19.2607C57.3624 19.2607 57.0108 19.3024 56.6804 19.376C55.3778 19.663 54.4056 20.4357 53.759 21.2034C53.4428 21.5812 53.2092 21.9565 53.0487 22.2729C52.8764 22.6138 52.7325 22.9646 52.6098 23.3227L52.5225 23.5926C51.8358 25.8762 52.1284 28.4812 53.5301 30.6569C54.323 31.8931 55.4392 32.8768 56.6922 33.5464C58.0986 34.3043 59.6821 34.6625 61.1711 34.53C61.1829 34.53 61.1923 34.53 61.1994 34.53L61.8696 34.4343L70.3176 33.2447L69.8716 31.6896L69.8763 31.6945ZM58.9293 22.0423C60.5859 21.2648 62.7073 21.9908 63.8966 23.8378C64.6565 25.0226 64.8641 26.4011 64.5621 27.581C64.3733 28.3291 63.9769 28.9987 63.3893 29.4844C63.3208 29.5408 63.25 29.5972 63.1722 29.6512C61.4708 30.8335 59.0378 30.1516 57.7329 28.128C56.8786 26.7985 56.7229 25.2188 57.1996 23.958C57.4521 23.2958 57.8721 22.7218 58.4573 22.317C58.6107 22.2091 58.7641 22.1208 58.9269 22.0448H58.9293V22.0423Z" fill="#C12D9C"/>
<path d="M68.6399 25.0516C68.5125 25.314 68.3614 25.5642 68.1892 25.7972L66.4075 19.5693L59.2102 19.3118C59.5382 18.4116 60.1069 17.6291 60.8974 17.0797C63.1534 15.5098 66.3839 16.4149 68.1137 19.1008C68.444 19.6135 68.6965 20.158 68.8712 20.7099C69.3502 22.2136 69.2558 23.7883 68.6399 25.054V25.0516Z" fill="#C12D9C"/>
<path d="M77.2458 30.6597L70.3222 33.2499L69.8762 31.6948L77.2458 30.6597Z" fill="#C12D9C"/>
<path d="M53.7588 21.2084C53.4426 21.5861 53.2066 21.9614 53.0485 22.2754C52.8786 22.6163 52.7323 22.9671 52.6096 23.3277L54.2048 18.2085C53.9169 19.1774 53.7683 20.188 53.7588 21.2084Z" fill="#C12D9C"/>
<path d="M72.1767 12.9609L70.834 15.2641L64.6915 13.9445C62.8815 13.4662 60.9866 13.7139 59.4268 14.8005C58.7897 15.2396 58.2587 15.7866 57.834 16.4121C57.7113 16.5911 57.598 16.7727 57.4942 16.9615C57.0906 17.6974 56.8193 18.5167 56.6824 19.3801L56.6777 19.3997C56.6635 19.4929 56.6494 19.591 56.6399 19.6867C56.6281 19.7701 56.6187 19.8535 56.6116 19.9344C56.6045 20.0056 56.5974 20.0792 56.5951 20.1527C56.5856 20.2582 56.5833 20.3612 56.5809 20.4667C56.5809 20.5477 56.5786 20.6311 56.5809 20.7145C56.5809 20.7905 56.5809 20.8665 56.5856 20.9426C56.5856 21.0284 56.5904 21.1143 56.5951 21.2001C56.5998 21.2811 56.6045 21.362 56.614 21.443C56.614 21.4896 56.621 21.5386 56.6258 21.5877C56.6376 21.6932 56.6493 21.8011 56.6635 21.9066L53.7775 21.9507C53.7633 21.703 53.7563 21.4552 53.761 21.2075C53.7681 20.1871 53.9191 19.1765 54.207 18.2076L54.2872 17.9451C54.4524 17.4349 54.6553 16.937 54.896 16.4587C55.6276 15.0017 57.6405 12.5782 60.9607 12.561L72.1767 12.9609Z" fill="#FC7AB1"/>
<path d="M73.673 26.0494L68.911 28.3158L67.4833 28.9928C66.2138 29.6208 64.7861 29.7655 63.3868 29.4785C61.3644 29.064 59.4058 27.7443 58.0749 25.6765C57.7186 25.1222 57.4236 24.5408 57.197 23.9497C56.9351 23.2776 56.7581 22.5859 56.6614 21.9015L58.9055 21.8672C58.9126 21.9236 58.9173 21.9825 58.9244 22.0389C59.0471 22.9734 59.3822 23.9203 59.9368 24.7837C61.0671 26.5399 62.8393 27.5358 64.5596 27.5751C65.4704 27.5947 66.3719 27.347 67.1506 26.8049C67.5518 26.5252 67.8987 26.1818 68.1842 25.7967C68.3565 25.5637 68.5098 25.3135 68.6349 25.051L73.6683 26.0494H73.673Z" fill="#FC7AB1"/>
<path d="M73.6733 26.0501L72.2598 20.6758L68.8712 20.7077C69.3502 22.2113 69.2558 23.786 68.6399 25.0517L73.6733 26.0501Z" fill="#FC7AB1"/>
<path d="M70.8346 15.264L64.6921 13.9444C62.8821 13.466 60.9872 13.7138 59.4274 14.8004C57.9054 15.8552 56.9733 17.5158 56.6806 19.38C56.5509 20.1943 56.5438 21.0479 56.6641 21.9064L58.9083 21.8721C58.8186 20.9793 58.9224 20.1011 59.2103 19.3137C59.5383 18.4135 60.107 17.6311 60.8976 17.0816C63.1535 15.5118 66.3841 16.4169 68.1138 19.1028C68.2365 19.2941 68.3498 19.4903 68.4489 19.6866C68.6211 20.0226 68.7627 20.3636 68.8713 20.7094L72.2599 20.6776L70.837 15.2665L70.8346 15.264Z" fill="#FF2D92"/>
<path d="M77.2465 30.6591L73.6738 26.0501L72.2603 20.6758L70.835 15.2647L72.1777 12.9614L77.2465 30.6591Z" fill="#FC7AB1"/>
<path d="M77.2458 30.6587L69.8785 31.6938L66.3153 32.1967C66.3153 32.1967 66.3058 32.1967 66.3035 32.1991L65.4115 32.3242C65.4115 32.3242 65.3973 32.3242 65.3902 32.3242C65.3879 32.3242 65.3832 32.3242 65.3808 32.3242C65.3784 32.3242 65.3784 32.3242 65.3737 32.3242C65.3666 32.3242 65.3619 32.3242 65.3572 32.3242C61.7326 32.6161 57.6926 30.6808 55.5193 27.3056C54.4479 25.6425 53.8792 23.7906 53.7754 21.9436L56.6614 21.8994C56.6944 22.1423 56.7393 22.3802 56.7959 22.6255C56.8148 22.7064 56.8337 22.7874 56.8525 22.8634C56.9446 23.2289 57.0602 23.5919 57.1971 23.9476C57.2584 24.1095 57.3245 24.2714 57.4 24.4308C57.426 24.4897 57.4519 24.5485 57.4826 24.6074C57.5534 24.7595 57.6313 24.914 57.7139 25.0686C57.7469 25.1323 57.7823 25.1937 57.8201 25.255C57.8979 25.3948 57.9852 25.5371 58.0749 25.6744C59.4058 27.7422 61.3644 29.0619 63.3868 29.4764C63.854 29.5721 64.3236 29.6187 64.7885 29.6162C64.9324 29.6162 65.074 29.6138 65.218 29.6015C65.9991 29.5451 66.766 29.3464 67.481 28.9907L68.9087 28.3137L73.6707 26.0473L77.2434 30.6562L77.2458 30.6587Z" fill="#FF2D92"/>
</g>
<defs>
<clipPath id="clip0_7309_21232">
<rect width="25" height="22" fill="white" transform="translate(52 13)"/>
</clipPath>
</defs>
</svg>

<svg xmlns="http://www.w3.org/2000/svg" width="114" height="36" fill="none" viewBox="0 0 114 36"><path fill="#f1f1f1" d="M12.215 34q-2.918 0-5.378-1.413a10.6 10.6 0 0 1-3.829-3.783q-1.413-2.416-1.413-5.287t1.413-5.241a10.5 10.5 0 0 1 3.829-3.829q2.46-1.413 5.378-1.413h10.392V34zm.045-4.831q1.505 0 2.78-.775a5.64 5.64 0 0 0 2.006-2.051 5.5 5.5 0 0 0 .775-2.826 5.34 5.34 0 0 0-.775-2.826 5.2 5.2 0 0 0-2.005-2.05 5.26 5.26 0 0 0-2.78-.775q-1.505 0-2.78.774a6 6 0 0 0-2.052 2.051q-.73 1.276-.73 2.826a5.76 5.76 0 0 0 .73 2.826q.775 1.275 2.051 2.05 1.276.776 2.78.776M47.565 2.096V34H37.082a10.2 10.2 0 0 1-5.242-1.413 10.5 10.5 0 0 1-3.828-3.828 10.2 10.2 0 0 1-1.413-5.242 10.2 10.2 0 0 1 1.413-5.241 10.5 10.5 0 0 1 3.828-3.829 10.2 10.2 0 0 1 5.242-1.413h5.56V2.096zM37.219 29.169q1.503 0 2.78-.775a5.64 5.64 0 0 0 2.005-2.051 5.5 5.5 0 0 0 .775-2.826 5.34 5.34 0 0 0-.775-2.826A5.2 5.2 0 0 0 40 18.641a5.26 5.26 0 0 0-2.78-.775 5.2 5.2 0 0 0-2.735.774 5.2 5.2 0 0 0-2.006 2.051q-.729 1.276-.729 2.826 0 1.505.73 2.826a5.64 5.64 0 0 0 2.005 2.05q1.276.776 2.734.776m43.49-16.135h21.149q2.552 0 4.512 1.048 2.006 1.003 3.099 2.872t1.094 4.33V34h-4.922V21.284q0-1.596-1.094-2.69t-2.689-1.093q-1.504 0-2.644 1.094-1.094 1.093-1.094 2.689V34h-4.968V21.284q0-1.596-1.094-2.69a3.6 3.6 0 0 0-2.643-1.093q-1.55 0-2.69 1.094-1.092 1.093-1.093 2.689V34H80.71z"/><g clip-path="url(#a)"><path fill="#c12d9c" d="m69.876 31.695-.965-3.378-.724-2.52-1.78-6.227-7.2-.26-1.47-.05c-.375 0-.726.042-1.057.116-1.302.287-2.274 1.06-2.921 1.827a5.7 5.7 0 0 0-.71 1.07c-.173.34-.316.692-.44 1.05l-.087.27a8.54 8.54 0 0 0 1.008 7.064 8.5 8.5 0 0 0 3.162 2.89c1.407.757 2.99 1.116 4.48.983h.027l.67-.096 8.449-1.19-.446-1.554zM58.93 22.042c1.657-.777 3.778-.051 4.968 1.796.76 1.185.967 2.563.665 3.743-.189.748-.585 1.418-1.173 1.903q-.101.086-.217.167c-1.701 1.183-4.134.5-5.44-1.523-.853-1.33-1.01-2.91-.532-4.17a3.47 3.47 0 0 1 1.257-1.641c.154-.108.307-.196.47-.272h.002z"/><path fill="#c12d9c" d="M68.64 25.052a4.7 4.7 0 0 1-.45.745l-1.782-6.228-7.198-.257c.328-.9.897-1.683 1.687-2.232 2.256-1.57 5.487-.665 7.217 2.02.33.513.582 1.058.757 1.61.48 1.504.385 3.078-.231 4.344zM77.246 30.66l-6.924 2.59-.446-1.555zM53.759 21.208a5.7 5.7 0 0 0-.71 1.067q-.255.512-.44 1.053l1.596-5.12a10.9 10.9 0 0 0-.446 3"/><path fill="#fc7ab1" d="m72.177 12.96-1.343 2.304-6.142-1.32c-1.81-.478-3.705-.23-5.265.856a6.1 6.1 0 0 0-1.593 1.612c-.123.18-.236.36-.34.55a7.5 7.5 0 0 0-.812 2.418l-.004.02a6 6 0 0 0-.038.287 5 5 0 0 0-.045.466c-.01.105-.012.208-.014.314q-.002.121 0 .248-.001.113.005.228 0 .128.01.257.005.121.018.243c0 .047.007.096.012.145q.017.159.038.319l-2.886.044a10 10 0 0 1-.017-.744 10.8 10.8 0 0 1 .446-3l.08-.262q.248-.767.609-1.486c.732-1.457 2.745-3.88 6.065-3.898z"/><path fill="#fc7ab1" d="m73.673 26.05-4.762 2.266-1.428.677c-1.27.628-2.697.773-4.096.486-2.023-.415-3.981-1.735-5.312-3.802A9.5 9.5 0 0 1 56.66 21.9l2.245-.034q.009.087.018.172a6.7 6.7 0 0 0 1.013 2.745c1.13 1.756 2.902 2.752 4.623 2.791a4.34 4.34 0 0 0 3.624-1.778c.172-.233.326-.483.45-.746l5.034.998z"/><path fill="#fc7ab1" d="m73.673 26.05-1.413-5.374-3.389.032c.48 1.503.385 3.078-.231 4.344z"/><path fill="#ff2d92" d="m70.835 15.264-6.143-1.32c-1.81-.478-3.705-.23-5.265.856-1.522 1.055-2.454 2.716-2.746 4.58a8.6 8.6 0 0 0-.017 2.526l2.244-.034a5.8 5.8 0 0 1 .302-2.558c.328-.9.897-1.683 1.688-2.232 2.255-1.57 5.486-.665 7.216 2.02q.185.289.335.585.259.504.422 1.022l3.389-.031-1.423-5.411z"/><path fill="#fc7ab1" d="m77.247 30.66-3.573-4.61-1.414-5.374-1.425-5.411 1.343-2.304z"/><path fill="#ff2d92" d="m77.246 30.659-7.367 1.035-3.564.503s-.01 0-.011.002l-.892.125h-.055c-3.624.292-7.664-1.643-9.838-5.018a11 11 0 0 1-1.744-5.362l2.886-.045c.033.243.078.481.135.726l.056.238a9.5 9.5 0 0 0 .548 1.568q.038.088.083.176.106.229.23.462.051.095.107.186.119.212.255.42c1.33 2.067 3.29 3.387 5.312 3.801a6.8 6.8 0 0 0 1.831.126 6 6 0 0 0 2.263-.611l1.428-.677 4.762-2.267 3.572 4.61z"/></g><defs><clipPath id="a"><path fill="#fff" d="M52 13h25v22H52z"/></clipPath></defs></svg>
